assets/images/icons/lock.svg

<svg width="14" height="16" fill="none" xmlns="http://www.w3.org/2000/svg"><path d="M3.5 5H1v10h12V5h-2.5m-7 0S4 1 7 1s3.5 4 3.5 4m-7 0h7" stroke="#0070C7" stroke-width="1.5" stroke-linecap="round" stroke-linejoin="round"/><path d="M8.5 10c0 1.2-1 1.5-1.5 1.5s-1.5-.3-1.5-1.5 1-1.5 1.5-1.5 1.5.3 1.5 1.5z" fill="#0070C7"/></svg>

<svg width="14" height="16" viewBox="0 0 14 16" fill="none" xmlns="http://www.w3.org/2000/svg">
<path d="M3.5 5H1V15H13V5H10.5M3.5 5C3.5 5 4 1 7 1C10 1 10.5 5 10.5 5M3.5 5H10.5" stroke="#0070C7" stroke-width="1.5" stroke-linecap="round" stroke-linejoin="round"/>
<path d="M8.5 10C8.5 11.2 7.5 11.5 7 11.5C6.5 11.5 5.5 11.2 5.5 10C5.5 8.8 6.5 8.5 7 8.5C7.5 8.5 8.5 8.8 8.5 10Z" fill="#0070C7"/>
</svg>
